X:13
T:Hartigan's Fancy
S:Trad, arr. Paddy O'Brien
Z:Set Hartigan's Fancy/Maloney's Wife/Have a Drink With Me
R:jig
E:10
I:speed 300
M:6/8
K:G
A|BAB GBd|cBc ABc|BdB GBd|cAG FGA|\
BAB GBd |cBc ABc|ded cAF|AGF G2:|\
d1/2e1/2|~f2f fed|cAG FGA|gag gfg|afd ~d2e|\
(4fgag fed|cAG FGA|BdB cAF|AGF G2:|\
B1/2d1/2|gdB gdB |ecA ecA|(4BcdB GBd|cAG FGA|\
gdB gdB|ecA ecA|(4BcdB GBd|cAF G2:|**

